lib/flags/py-paraguay.svg

<svg xmlns="http://www.w3.org/2000/svg" fill="none" aria-hidden="true" viewBox="0 0 42 30"><g id="Country=PY - Paraguay, Size=sm (36x24)" filter="url(#filter0_dd_91_25505)"><g clip-path="url(#clip0_91_25505)"><g id="flag"><mask id="mask0_91_25505" width="36" height="24" x="3" y="2" maskUnits="userSpaceOnUse" style="mask-type:alpha"><rect id="mask" width="36" height="24" x="3" y="2" fill="white"/></mask><g mask="url(#mask0_91_25505)"><g id="contents"><path id="background" fill="#F7FCFF" fill-rule="evenodd" d="M3 2V26H39V2H3Z" clip-rule="evenodd"/><mask id="mask1_91_25505" width="36" height="24" x="3" y="2" maskUnits="userSpaceOnUse" style="mask-type:alpha"><path id="background_2" fill="white" fill-rule="evenodd" d="M3 2V26H39V2H3Z" clip-rule="evenodd"/></mask><g mask="url(#mask1_91_25505)"><g id="mark"><path id="Oval 23" stroke="#272727" stroke-width="0.35" d="M25.325 14C25.325 16.0937 23.4086 17.825 21 17.825C18.5914 17.825 16.675 16.0937 16.675 14C16.675 11.9063 18.5914 10.175 21 10.175C23.4086 10.175 25.325 11.9063 25.325 14Z"/><path id="Oval 23_2" fill="#272727" fill-rule="evenodd" d="M17.625 14C17.625 15.6569 19.136 17 21 17C22.864 17 24.375 15.6569 24.375 14C24.375 13.1144 23.9433 12.3183 23.2566 11.7692C22.6588 11.291 21.8676 11 21 11C20.2701 11 19.5944 11.2059 19.0423 11.556C18.1844 12.1 17.625 12.9919 17.625 14ZM23.9812 14C23.9812 15.4636 22.6465 16.65 21 16.65C19.3535 16.65 18.0187 15.4636 18.0187 14C18.0187 13.106 18.5168 12.3153 19.2798 11.8354C19.7658 11.5297 20.3593 11.35 21 11.35C21.7957 11.35 22.5186 11.6271 23.0533 12.0787C23.6249 12.5615 23.9812 13.2438 23.9812 14Z" clip-rule="evenodd"/></g><path id="top" fill="#F05234" fill-rule="evenodd" d="M3 2V10H39V2H3Z" clip-rule="evenodd"/><path id="bottom" fill="#3D58DB" fill-rule="evenodd" d="M3 18V26H39V18H3Z" clip-rule="evenodd"/><path id="Path 198" fill="#73BE4A" d="M19.4439 12.0024L19.764 12.4135C19.0217 12.8703 18.6857 13.4067 18.96 14.3168C19.2317 15.2181 19.8691 15.6655 20.9301 15.6983L20.9106 16.198C19.6032 16.1576 18.7201 15.6814 18.3842 14.567C18.0509 13.4613 18.4969 12.5851 19.4439 12.0024Z"/><path id="Star" fill="#FBCD17" fill-rule="evenodd" d="M21 14.3152L20.0081 14.9137L20.342 13.8902L19.3951 13.2367L20.5933 13.2026L21 12.2002L21.4067 13.2026L22.6049 13.2367L21.658 13.8902L21.9919 14.9137L21 14.3152Z" clip-rule="evenodd"/><path id="Path 198_2" stroke="#73BE4A" stroke-width="0.5" d="M22.3135 12.176C22.3135 12.176 23.5804 12.9557 23.1247 14.4675C22.669 15.9793 20.8927 16.0341 20.8927 16.0341"/><path id="Path 2" fill="#F7FCFF" d="M19.3848 11.0439L19.9099 11.7622Z"/></g></g></g></g></g></g><defs><filter id="filter0_dd_91_25505" width="42" height="30" x="0" y="0" color-interpolation-filters="sRGB" filterUnits="userSpaceOnUse"><feFlood flood-opacity="0" result="BackgroundImageFix"/><feColorMatrix in="SourceAlpha" result="hardAlpha" values="0 0 0 0 0 0 0 0 0 0 0 0 0 0 0 0 0 0 127 0"/><feOffset dy="1"/><feGaussianBlur stdDeviation="1"/><feColorMatrix values="0 0 0 0 0.0627451 0 0 0 0 0.0941176 0 0 0 0 0.156863 0 0 0 0.06 0"/><feBlend in2="BackgroundImageFix" result="effect1_dropShadow_91_25505"/><feColorMatrix in="SourceAlpha" result="hardAlpha" values="0 0 0 0 0 0 0 0 0 0 0 0 0 0 0 0 0 0 127 0"/><feOffset dy="1"/><feGaussianBlur stdDeviation="1.5"/><feColorMatrix values="0 0 0 0 0.0627451 0 0 0 0 0.0941176 0 0 0 0 0.156863 0 0 0 0.1 0"/><feBlend in2="effect1_dropShadow_91_25505" result="effect2_dropShadow_91_25505"/><feBlend in="SourceGraphic" in2="effect2_dropShadow_91_25505" result="shape"/></filter><clipPath id="clip0_91_25505"><rect width="36" height="24" x="3" y="2" fill="white" rx="2"/></clipPath></defs></svg>

<svg xmlns="http://www.w3.org/2000/svg" fill="none" aria-hidden="true" viewBox="0 0 42 30"><g filter="url(#a)"><g clip-path="url(#b)"><mask id="c" width="36" height="24" x="3" y="2" maskUnits="userSpaceOnUse" style="mask-type:alpha"><path fill="#fff" d="M3 2h36v24H3z"/></mask><g mask="url(#c)"><path fill="#F7FCFF" fill-rule="evenodd" d="M3 2v24h36V2H3Z" clip-rule="evenodd"/><mask id="d" width="36" height="24" x="3" y="2" maskUnits="userSpaceOnUse" style="mask-type:alpha"><path fill="#fff" fill-rule="evenodd" d="M3 2v24h36V2H3Z" clip-rule="evenodd"/></mask><g mask="url(#d)"><path stroke="#272727" stroke-width=".35" d="M25.325 14c0 2.094-1.916 3.825-4.325 3.825-2.409 0-4.325-1.731-4.325-3.825 0-2.094 1.916-3.825 4.325-3.825 2.409 0 4.325 1.731 4.325 3.825Z"/><path fill="#272727" fill-rule="evenodd" d="M17.625 14c0 1.657 1.511 3 3.375 3s3.375-1.343 3.375-3c0-.886-.432-1.682-1.118-2.23A3.609 3.609 0 0 0 21 11c-.73 0-1.406.206-1.958.556-.858.544-1.417 1.436-1.417 2.444Zm6.356 0c0 1.464-1.335 2.65-2.981 2.65s-2.981-1.186-2.981-2.65c0-.894.498-1.685 1.26-2.165A3.228 3.228 0 0 1 21 11.35c.796 0 1.519.277 2.053.729.572.482.928 1.165.928 1.921Z" clip-rule="evenodd"/><path fill="#F05234" fill-rule="evenodd" d="M3 2v8h36V2H3Z" clip-rule="evenodd"/><path fill="#3D58DB" fill-rule="evenodd" d="M3 18v8h36v-8H3Z" clip-rule="evenodd"/><path fill="#73BE4A" d="m19.444 12.002.32.412c-.742.456-1.078.993-.804 1.903.272.901.91 1.348 1.97 1.381l-.02.5c-1.307-.04-2.19-.517-2.526-1.631-.333-1.106.113-1.982 1.06-2.565Z"/><path fill="#FBCD17" fill-rule="evenodd" d="m21 14.315-.992.599.334-1.024-.947-.653 1.198-.034L21 12.2l.407 1.003 1.198.034-.947.653.334 1.024-.992-.599Z" clip-rule="evenodd"/><path stroke="#73BE4A" stroke-width=".5" d="M22.314 12.176s1.266.78.81 2.291c-.455 1.512-2.231 1.567-2.231 1.567"/><path fill="#F7FCFF" d="m19.385 11.044.525.718Z"/></g></g></g></g><defs><clipPath id="b"><rect width="36" height="24" x="3" y="2" fill="#fff" rx="2"/></clipPath><filter id="a" width="42" height="30" x="0" y="0" color-interpolation-filters="sRGB" filterUnits="userSpaceOnUse"><feFlood flood-opacity="0" result="BackgroundImageFix"/><feColorMatrix in="SourceAlpha" result="hardAlpha" values="0 0 0 0 0 0 0 0 0 0 0 0 0 0 0 0 0 0 127 0"/><feOffset dy="1"/><feGaussianBlur stdDeviation="1"/><feColorMatrix values="0 0 0 0 0.0627451 0 0 0 0 0.0941176 0 0 0 0 0.156863 0 0 0 0.06 0"/><feBlend in2="BackgroundImageFix" result="effect1_dropShadow_91_25505"/><feColorMatrix in="SourceAlpha" result="hardAlpha" values="0 0 0 0 0 0 0 0 0 0 0 0 0 0 0 0 0 0 127 0"/><feOffset dy="1"/><feGaussianBlur stdDeviation="1.5"/><feColorMatrix values="0 0 0 0 0.0627451 0 0 0 0 0.0941176 0 0 0 0 0.156863 0 0 0 0.1 0"/><feBlend in2="effect1_dropShadow_91_25505" result="effect2_dropShadow_91_25505"/><feBlend in="SourceGraphic" in2="effect2_dropShadow_91_25505" result="shape"/></filter></defs></svg>
